045_full-page-background_02/my_work/img/svg/leaf.svg

<svg xmlns="http://www.w3.org/2000/svg" xmlns:xlink="http://www.w3.org/1999/xlink" viewBox="0 0 26.458333 26.458334">
  <defs>
    <symbol viewBox="0 0 28 28" id="a">
      <title>
        leaf
      </title>
      <path d="M5.2916667 2.9104167c0-.1447271-.1198563-.2645834-.2645834-.2645834-1.4634104 0-2.4061208.6117167-3.3610021 1.6660813-.049477.0537104-.0785812.1116541-.0785812.1860021 0 .144727.1198562.2645833.2645833.2645833.074348 0 .1322917-.02884.1860021-.078581.2026709-.1820336.3844396-.3802065.5828771-.5664732.7482417-.6738937 1.3890625-.9427104 2.4061208-.9427104.1447271 0 .2645834-.1198562.2645834-.2645833zm2.1166666-.8186209c0 .2645834-.02884.5334-.082815.7979834-.2645829 1.2856104-1.0914058 2.1209-2.2407558 2.6913416-.5580063.2809875-1.1824229.4463521-1.8108083.4463521-.396875 0-.8061855-.066146-1.1824229-.1942042-.1984375-.0661458-.5953125-.3264958-.7606771-.3264958-.2066396 0-.45481878.8432271-.81438753.8432271-.26035 0-.33893125-.1280583-.45058542-.3182938-.03730625-.0703791-.06614583-.0949854-.06614583-.1820333 0-.4299479.81862083-.7649104.81862083-1.0046229 0-.037306-.10742083-.2563813-.12408958-.3389312-.02487084-.1404938-.03730625-.2852209-.03730625-.429948 0-1.3147145 1.04589788-2.2531916 2.22011878-2.6416.8474604-.2809875 2.6500666.0455084 3.224477-.50032705.2272771-.21087292.3389313-.40507708.6863292-.40507708.4672542 0 .6201833 1.21126253.6201833 1.56262913z" stroke-width=".26458332"/>
    </symbol>
  </defs>
  <use height="100%" width="100%" xlink:href="#a" transform="matrix(3.2 0 0 3.2 2 2.8)"/>
</svg>

<?xml version="1.0" encoding="UTF-8" standalone="no"?>
<svg
   xmlns:dc="http://purl.org/dc/elements/1.1/"
   xmlns:cc="http://creativecommons.org/ns#"
   xmlns:rdf="http://www.w3.org/1999/02/22-rdf-syntax-ns#"
   xmlns:svg="http://www.w3.org/2000/svg"
   xmlns="http://www.w3.org/2000/svg"
   xmlns:xlink="http://www.w3.org/1999/xlink"
   id="svg72658"
   version="1.1"
   viewBox="0 0 100 100"
   height="100"
   width="100">
  <defs
     id="defs72652">
    <symbol
       viewBox="0 0 28 28"
       id="icon-leaf">
      <title
         id="title4792">leaf</title>
      <path
         id="path4794"
         d="m 5.291667,2.910417 c 0,-0.144727 -0.119857,-0.264584 -0.264584,-0.264584 c -1.46341,0 -2.40612,0.611717 -3.361002,1.666082 C 1.616604,4.365625 1.5875,4.423569 1.5875,4.497917 c 0,0.144727 0.119856,0.264583 0.264583,0.264583 c 0.07435,0 0.132292,-0.02884 0.186002,-0.07858 C 2.240756,4.501885 2.422525,4.303712 2.620963,4.117446 C 3.369204,3.443552 4.010025,3.174735 5.027083,3.174735 c 0.144727,0 0.264584,-0.119856 0.264584,-0.264583 z M 7.408333,2.091796 c 0,0.264583 -0.02884,0.5334 -0.08282,0.797983 C 7.060935,4.17539 6.234112,5.010679 5.084762,5.581121 C 4.526756,5.862108 3.90234,6.027473 3.273954,6.027473 c -0.396875,0 -0.806185,-0.06615 -1.182423,-0.194204 C 1.893094,5.767123 1.496219,5.506773 1.330854,5.506773 C 1.124215,5.506773 0.8760354,6.35 0.5164667,6.35 C 0.2561167,6.35 0.1775354,6.221942 0.0658813,6.031706 C 0.028575,5.961327 -2.645833e-4,5.936721 -2.645833e-4,5.849673 c 0,-0.429948 0.8186207833,-0.764911 0.8186207833,-1.004623 c 0,-0.03731 -0.1074208,-0.256381 -0.1240895,-0.338931 C 0.6693958,4.365625 0.6569604,4.220898 0.6569604,4.076171 c 0,-1.314715 1.0458976,-2.253192 2.2201186,-2.6416 C 3.72454,1.153583 5.527146,1.480079 6.101556,0.9342438 C 6.328833,0.7233708 6.440487,0.5291667 6.787885,0.5291667 c 0.467255,0 0.620184,1.2112623 0.620184,1.5626293 z"
         style="stroke-width:0.2645833" />
    </symbol>
  </defs>
  <metadata
     id="metadata72655">
    <rdf:RDF>
      <cc:Work
         rdf:about="">
        <dc:format>image/svg+xml</dc:format>
        <dc:type
           rdf:resource="http://purl.org/dc/dcmitype/StillImage" />
        <dc:title></dc:title>
        <dc:identifier>leaf</dc:identifier>
      </cc:Work>
    </rdf:RDF>
  </metadata>
  <g
     transform="translate(0,-270.5416)"
     id="layer1">
    <use
       height="100%"
       width="100%"
       y="0"
       x="0"
       xlink:href="#icon-leaf"
       style="fill:black;stroke:none"
       transform="matrix(3.212484,0,0,3.212484,7.503033,281.0787)"
       id="use73626" />
  </g>
</svg>
